X:228
T:Reel 228
M:4/4
K:Gmaj
L:1/8
d|BcdB AFDC|B,DGB dedc|BcdB GADF|ABcA FGAc|BGdB cAFA|BDDC DEFG|BABc defd|cAFG AGG|c|dggf gfgf|dfga bgaf|dede f2fg|abc'd' afge|dfga b2ag|fdde fgaf|babg afge|fdcA BGG|
